X:137
T:Uncle Larry Igoe
R:waltz (or air) 
C: 2008, 2010 L.E. McCullough 
M:3/4
L:1/8
K:D
AF|: D3F ED | FA3 FA | B3d BA | F4 ED |
G3A B2 | BA3 d2 |c2 d2 f2 | e4 AF |
D3F ED | FA3 FA | B3A Bd | f4 ef |
gB2g fe | fA2f ed | e3d c>d |1d4 AF :|2d4 dc ||
B3A Bd | BA3 DE | F2 A2 B>A | F4 dc |
B3A Bd | fA3 gf | e3d cB | A2 G2 (4FGFE |
D3F ED | FA3 FA | B3A Bd | f4 ef |
gB2g fe | ad2f ed |eg3 fe | d4 ef |
gB2g fe | dA2f ed |e3d c>A | d6 ||
<end>
<start>
